X:1031
T:Graies Inne Maske (part 1)
M:C|
L:1/8
Q:120
K:DDor
d2 de f2d2|a2A2 A4|A2 AB c2A2|d2d4d2|F3F G3G|ABcB A3A|Bcde f2 e2|d8||
defg a2a2|g2f2 e4|d2d2 c2B2|A8||
c2A2 e4|f2d2f4|e3f g4|f8||

